X: 27754
T: Morning Star, The
R: reel
M: 4/4
K: Amajor
EF|G2 FG FECE|EFGB BecB|(3GBG FG FECB,|B,EGF E3F|
G3 E FECE|EFGB BecB|(3GBG FG FECB,|B,EGF E3F|
G2 Bc e3f|ecBe cBGF|GBBc e3f|(3efe cB ec (3BGF|
G2 Bc e3f|ecBe cBGF|GBBc e3c|f3^d ecBA|

